src/assets/filled/Slash.svg

<svg width="24" height="24" viewBox="0 0 24 24"  xmlns="http://www.w3.org/2000/svg">
<path d="M19.53 5.53L5.53 19.53C5.51 19.55 5.5 19.56 5.48 19.57C5.1 19.25 4.75 18.9 4.43 18.52C2.91 16.77 2 14.49 2 12C2 6.48 6.48 2 12 2C14.49 2 16.77 2.91 18.52 4.43C18.9 4.75 19.25 5.1 19.57 5.48C19.56 5.5 19.55 5.51 19.53 5.53Z" />
<path d="M22.0001 11.9999C22.0001 17.4899 17.4901 21.9999 12.0001 21.9999C10.5001 21.9999 9.0801 21.6699 7.8001 21.0699C7.1801 20.7799 7.0601 19.9499 7.5401 19.4599L19.4601 7.53986C19.9401 7.05986 20.7801 7.17986 21.0701 7.79986C21.6701 9.06986 22.0001 10.4999 22.0001 11.9999Z" />
<path d="M21.7699 2.22988C21.4699 1.92988 20.9799 1.92988 20.6799 2.22988L2.22988 20.6899C1.92988 20.9899 1.92988 21.4799 2.22988 21.7799C2.37988 21.9199 2.56988 21.9999 2.76988 21.9999C2.96988 21.9999 3.15988 21.9199 3.30988 21.7699L21.7699 3.30988C22.0799 3.00988 22.0799 2.52988 21.7699 2.22988Z" />
</svg>

<?xml version="1.0" encoding="UTF-8"?>
<svg width="24" height="24" viewBox="0 0 24 24" xmlns="http://www.w3.org/2000/svg">
 <path d="m19.53 5.53-14 14c-0.02 0.02-0.03 0.03-0.05 0.04-0.38-0.32-0.73-0.67-1.05-1.05-1.52-1.75-2.43-4.03-2.43-6.52 0-5.52 4.48-10 10-10 2.49 0 4.77 0.91 6.52 2.43 0.38 0.32 0.73 0.67 1.05 1.05-0.01 0.02-0.02 0.03-0.04 0.05z"/>
 <path d="m22 12c0 5.49-4.51 10-10 10-1.5 0-2.92-0.33-4.2-0.93-0.62-0.29-0.74-1.12-0.26-1.61l11.92-11.92c0.48-0.48 1.32-0.36 1.61 0.26 0.6 1.27 0.93 2.7 0.93 4.2z"/>
 <path d="m21.77 2.2299c-0.3-0.3-0.79-0.3-1.09 0l-18.45 18.46c-0.3 0.3-0.3 0.79 0 1.09 0.15 0.14 0.34 0.22 0.54 0.22s0.39-0.08 0.54-0.23l18.46-18.46c0.31-0.3 0.31-0.78 0-1.08z"/>
</svg>
